X: 320
T: Reel Béatrice
%T: Oggi Nevica (Today it snows)
C: T.Fantini
R: reel
D: La Bottine Souriante "Je Voudrais Changer D'Chapeau"
Z: John Chambers <jc:trillian.mit.edu>
N: Well-known in New England, and many variants exist.
N: According to Paul M.  MacDonald, the original reel began as a polka from  the
N: Ballo  Liscio  dance  repertoire  called "Oggi Nevica" (which means 'today it
N: snows'), played by Riccardo Tesi, an Italian accordion player.
M: C|
L: 1/8
K: Am
A,B, | "Am"C2A,C E2CE | A2EA EGAB | c2Ac e2ce | aeea egab | c'bag fedc |
"Dm"Bd2B d4 | "E7"e^def e=dcB | "Am"A2A,A, A,2 :: ^g2 | "Dm"a2^ga bff2 | "Am"fe^de a4 |
[1,3 "E7"e2^de f2e=d | "Am"cdcB cBA2 ::|2 "E7"e^def e=dcB | "Am"AA,A,A, A,2z2 :|4 "E7"e^def e=dcB | "Am"A2z2 "G7"G2AB ||
|: "C"c2Gc EGce | c2Gc EGce | "G7"d2Bd GBdB | [1,3 "C"c2ba "(G7)"gfed :|2,4 "C"ce"G7"dB "C"c2z2 :|

